X:3076
T:Bitte mand i knibe
C:anon.
O:Denmark
F:http://abc.musicaviva.com/tunes/denmark/bitte-mand-i-knibe.abc
M:3/4
L:1/8
K:C
ce|:"C"gg gf ed|"C"cc ce dc|[1"G7"BB Bf ed|"C"cc cG ce:|[2"G7"BB Bf ed|"C"c4SG2||
|:"F"(A2c2)BA|"C"(G2e2)dc|[1"G7"(B2f2)ed|"C"(c2e2)G2:|[2"G7"(B2f2)ed|"C"c2 z2|]
W:
W:
W:  From Musica Viva - http://www.musicaviva.com
W:  the Internet center for free sheet music downloads.
